X:5756
T:Salimony Waltz
O:england
M:3/4
L:1/8
S:Eric Robertson
R:Waltz
K:D
FA3 A>B | A>F E2 D2 | B3A B>c | B4 A2 | FA3 A>B | A>F E2 D2 | E3 D E>F |
G2 F2 E2 | FA3 A>B | A>F E2 D2 | B3A B>c | d4 d>e | f4 f>d | A4 F>A |
G2 F2 E2 |1 D6 :|2 D4 A2 |: f3e f>g | a2 f2 d2 | c3d (3cBA | E6 |
c3B c> d | e4 e>f | g2 f2 e>d | Bd3 A2 | d3e f>g | a4 f2 | g3a (3gfe |
B4 d>e | f4 f>d | A4 F>A | G2 F2 E2 |1 D4 A2 :|2 D6 ||


